; generated by Slic3r 1.2.9 on 2018-11-03 at 12:23:17

; external perimeters extrusion width = 0.30mm
; perimeters extrusion width = 0.31mm
; infill extrusion width = 0.31mm
; solid infill extrusion width = 0.31mm
; top infill extrusion width = 0.31mm

M107
M104 S200 ; set temperature
G28 ; home all axes
G1 Z5 F5000 ; lift nozzle

M109 S200 ; wait for temperature to be reached
G21 ; set units to millimeters
G90 ; use absolute coordinates
M82 ; use absolute distances for extrusion
G92 E0
G1 Z0.300 F7800.000
G1 E-2.00000 F2400.00000
G92 E0
G1 X94.612 Y95.202 F7800.000
G1 E2.00000 F2400.00000
G1 X96.018 Y93.984 E2.04228 F600.000
G1 X96.182 Y93.879 E2.04672
G1 X97.874 Y93.106 E2.08901
G1 X98.061 Y93.051 E2.09344
G1 X99.903 Y92.786 E2.13573
G1 X100.097 Y92.786 E2.14016
G1 X101.939 Y93.051 E2.18244
G1 X102.126 Y93.106 E2.18688 F600.000
G1 X103.818 Y93.879 E2.22917
G1 X103.982 Y93.984 E2.23360
G1 X105.388 Y95.202 E2.27588
G1 X105.516 Y95.350 E2.28032
G1 X106.521 Y96.915 E2.32260
G1 X106.602 Y97.092 E2.32704
G1 X107.126 Y98.877 E2.36932
G1 X107.154 Y99.070 E2.37376
G1 X107.154 Y100.930 E2.41604
G1 X107.126 Y101.123 E2.42048
G1 X106.602 Y102.908 E2.46276
G1 X106.521 Y103.085 E2.46719
G1 X105.516 Y104.650 E2.50948
G1 X105.388 Y104.798 E2.51392
G1 X103.982 Y106.016 E2.55620
G1 X103.818 Y106.121 E2.56063
G1 X102.126 Y106.894 E2.60292
G1 X101.939 Y106.949 E2.60735
G1 X100.097 Y107.214 E2.64964
G1 X99.903 Y107.214 E2.65407
G1 X98.061 Y106.949 E2.69636
G1 X97.874 Y106.894 E2.70079
G1 X96.182 Y106.121 E2.74308
G1 X96.018 Y106.016 E2.74751
G1 X94.612 Y104.798 E2.78980
G1 X94.484 Y104.650 E2.79423
G1 X93.479 Y103.085 E2.83652
G1 X93.398 Y102.908 E2.84095
G1 X92.874 Y101.123 E2.88324
G1 X92.846 Y100.930 E2.88767
G1 X92.846 Y99.070 E2.92996
G1 X92.874 Y98.877 E2.93439
G1 X93.398 Y97.092 E2.97668
G1 X93.479 Y96.915 E2.98111
G1 X94.484 Y95.350 E3.02340
G1 X94.583 Y95.236 E3.02681
G1 E1.02681 F2400.00000
G92 E0
M104 S0 ; turn off temperature
G28 X0  ; home X axis
M84     ; disable motors

; filament used = 1.0mm (0.0cm3)

; avoid_crossing_perimeters = 1
; bed_shape = 0x0,200x0,200x200,0x200
; bed_temperature = 0
; before_layer_gcode = 
; bridge_acceleration = 0
; bridge_fan_speed = 100
; brim_width = 0
; complete_objects = 0
; cooling = 1
; default_acceleration = 0
; disable_fan_first_layers = 3
; duplicate_distance = 6
; end_gcode = M104 S0 ; turn off temperature\nG28 X0  ; home X axis\nM84     ; disable motors\n
; extruder_clearance_height = 20
; extruder_clearance_radius = 20
; extruder_offset = 0x0
; extrusion_axis = E
; extrusion_multiplier = 1
; fan_always_on = 0
; fan_below_layer_time = 60
; filament_colour = #FFFFFF
; filament_diameter = 3
; first_layer_acceleration = 0
; first_layer_bed_temperature = 0
; first_layer_extrusion_width = 200%
; first_layer_speed = 30
; first_layer_temperature = 200
; gcode_arcs = 0
; gcode_comments = 0
; gcode_flavor = reprap
; infill_acceleration = 0
; infill_first = 0
; layer_gcode = 
; max_fan_speed = 100
; max_print_speed = 80
; max_volumetric_speed = 0
; min_fan_speed = 35
; min_print_speed = 10
; min_skirt_length = 0
; notes = 
; nozzle_diameter = 0.3
; only_retract_when_crossing_perimeters = 1
; ooze_prevention = 0
; output_filename_format = [input_filename_base].gcode
; perimeter_acceleration = 0
; post_process = 
; pressure_advance = 0
; resolution = 0
; retract_before_travel = 2
; retract_layer_change = 0
; retract_length = 2
; retract_length_toolchange = 10
; retract_lift = 0
; retract_restart_extra = 0
; retract_restart_extra_toolchange = 0
; retract_speed = 40
; skirt_distance = 6
; skirt_height = 1
; skirts = 1
; slowdown_below_layer_time = 5
; spiral_vase = 0
; standby_temperature_delta = -5
; start_gcode = G28 ; home all axes\nG1 Z5 F5000 ; lift nozzle\n
; temperature = 200
; threads = 2
; toolchange_gcode = 
; travel_speed = 130
; use_firmware_retraction = 0
; use_relative_e_distances = 0
; use_volumetric_e = 0
; vibration_limit = 0
; wipe = 0
; z_offset = 0
; dont_support_bridges = 1
; extrusion_width = 0
; first_layer_height = 0.3
; infill_only_where_needed = 0
; interface_shells = 0
; layer_height = 0.3
; raft_layers = 0
; seam_position = aligned
; support_material = 0
; support_material_angle = 0
; support_material_contact_distance = 0.2
; support_material_enforce_layers = 0
; support_material_extruder = 1
; support_material_extrusion_width = 0
; support_material_interface_extruder = 1
; support_material_interface_layers = 3
; support_material_interface_spacing = 0
; support_material_interface_speed = 100%
; support_material_pattern = pillars
; support_material_spacing = 2.5
; support_material_speed = 60
; support_material_threshold = 0
; xy_size_compensation = 0
; bottom_solid_layers = 3
; bridge_flow_ratio = 1
; bridge_speed = 60
; external_fill_pattern = rectilinear
; external_perimeter_extrusion_width = 0
; external_perimeter_speed = 50%
; external_perimeters_first = 0
; extra_perimeters = 1
; fill_angle = 45
; fill_density = 5%
; fill_pattern = concentric
; gap_fill_speed = 20
; infill_every_layers = 10
; infill_extruder = 1
; infill_extrusion_width = 0
; infill_overlap = 15%
; infill_speed = 80
; overhangs = 1
; perimeter_extruder = 1
; perimeter_extrusion_width = 0
; perimeter_speed = 60
; perimeters = 3
; small_perimeter_speed = 15
; solid_infill_below_area = 70
; solid_infill_every_layers = 0
; solid_infill_extruder = 1
; solid_infill_extrusion_width = 0
; solid_infill_speed = 20
; thin_walls = 1
; top_infill_extrusion_width = 0
; top_solid_infill_speed = 15
; top_solid_layers = 3
