; generated by Slic3r 1.2.9 on 2018-10-23 at 21:55:20

; external perimeters extrusion width = 0.50mm
; perimeters extrusion width = 0.72mm
; infill extrusion width = 0.72mm
; solid infill extrusion width = 0.72mm
; top infill extrusion width = 0.72mm

M107
M104 S200 ; set temperature
G28 ; home all axes
G1 Z5 F5000 ; lift nozzle

M109 S200 ; wait for temperature to be reached
G21 ; set units to millimeters
G90 ; use absolute coordinates
M82 ; use absolute distances for extrusion
G92 E0
G1 Z0.350 F7800.000
G1 E-2.00000 F2400.00000
G92 E0
G1 X73.644 Y73.152 F7800.000
G1 E2.00000 F2400.00000
G1 X75.506 Y71.443 E2.07819 F1800.000
G1 X77.176 Y70.091 E2.14467
G1 X78.921 Y68.837 E2.21115
G1 X80.734 Y67.685 E2.27764
G1 X82.610 Y66.637 E2.34412
G1 X84.543 Y65.699 E2.41060
G1 X86.527 Y64.873 E2.47708
G1 X88.554 Y64.161 E2.54357
G1 X90.618 Y63.566 E2.61004
G1 X92.343 Y63.165 E2.66484
G1 X94.459 Y62.788 E2.73132
G1 X96.969 Y62.500 E2.80951
G1 X99.115 Y62.388 E2.87599
G1 X101.263 Y62.399 E2.94246
G1 X103.408 Y62.532 E3.00894 F1800.000
G1 X105.167 Y62.734 E3.06374
G1 X107.656 Y63.165 E3.14191
G1 X109.747 Y63.662 E3.20839
G1 X111.446 Y64.161 E3.26319
G1 X113.825 Y65.010 E3.34136
G1 X115.801 Y65.856 E3.40786
G1 X117.390 Y66.637 E3.46264
G1 X119.266 Y67.685 E3.52912
G1 X121.391 Y69.051 E3.60730
G1 X123.123 Y70.322 E3.67378
G1 X124.494 Y71.443 E3.72857
G1 X126.356 Y73.152 E3.80676
G1 X127.845 Y74.700 E3.87323
G1 X129.005 Y76.038 E3.92802
G1 X130.548 Y78.039 E4.00621
G1 X131.752 Y79.819 E4.07268
G1 X132.666 Y81.335 E4.12747
G1 X133.846 Y83.570 E4.20566
G1 X134.728 Y85.529 E4.27213
G1 X135.371 Y87.179 E4.32692
G1 X136.151 Y89.582 E4.40510
G1 X136.602 Y91.294 E4.45989
G1 X137.039 Y93.398 E4.52637
G1 X137.399 Y95.899 E4.60456
G1 X137.550 Y97.663 E4.65934
G1 X137.622 Y99.811 E4.72582
G1 X137.550 Y102.337 E4.80401
G1 X137.399 Y104.101 E4.85879
G1 X137.103 Y106.229 E4.92527
G1 X136.602 Y108.706 E5.00346
G1 X136.152 Y110.418 E5.05824
G1 X135.498 Y112.465 E5.12472
G1 X134.581 Y114.819 E5.20290
G1 X133.846 Y116.430 E5.25769
G1 X132.852 Y118.335 E5.32417
G1 X131.548 Y120.499 E5.40236
G1 X130.326 Y122.267 E5.46884
G1 X129.245 Y123.669 E5.52362
G1 X127.590 Y125.579 E5.60181
G1 X126.085 Y127.111 E5.66827
G1 X124.780 Y128.309 E5.72307
G1 X122.824 Y129.909 E5.80126
G1 X121.080 Y131.163 E5.86774
G1 X119.590 Y132.120 E5.92252
G1 X117.390 Y133.363 E6.00071
G1 X115.801 Y134.144 E6.05549
G1 X113.826 Y134.990 E6.12197
G1 X111.446 Y135.839 E6.20015
G1 X109.381 Y136.434 E6.26664
G1 X107.657 Y136.835 E6.32142
G1 X105.167 Y137.266 E6.39960
G1 X103.408 Y137.468 E6.45439
G1 X101.263 Y137.601 E6.52087
G1 X98.737 Y137.601 E6.59906
G1 X96.969 Y137.500 E6.65384
G1 X94.833 Y137.266 E6.72032
G1 X92.343 Y136.835 E6.79851
G1 X90.253 Y136.338 E6.86499
G1 X88.554 Y135.839 E6.91977
G1 X86.174 Y134.990 E6.99795
G1 X84.199 Y134.144 E7.06443
G1 X82.610 Y133.363 E7.11922
G1 X80.410 Y132.120 E7.19741
G1 X78.609 Y130.950 E7.26388
G1 X77.176 Y129.909 E7.31867
G1 X75.220 Y128.309 E7.39686
G1 X73.644 Y126.848 E7.46333
G1 X72.410 Y125.579 E7.51812
G1 X70.756 Y123.669 E7.59629
G1 X69.674 Y122.267 E7.65109
G1 X68.452 Y120.499 E7.71757
G1 X67.148 Y118.335 E7.79576
G1 X66.321 Y116.769 E7.85054
G1 X65.419 Y114.819 E7.91702
G1 X64.502 Y112.465 E7.99521
G1 X63.849 Y110.418 E8.06168
G1 X63.398 Y108.706 E8.11647
G1 X62.897 Y106.229 E8.19464
G1 X62.601 Y104.101 E8.26114
G1 X62.450 Y102.337 E8.31592
G1 X62.378 Y99.811 E8.39410
G1 X62.450 Y97.664 E8.46059
G1 X62.601 Y95.899 E8.51537
G1 X62.961 Y93.398 E8.59356
G1 X63.313 Y91.663 E8.64834
G1 X63.848 Y89.582 E8.71482
G1 X64.629 Y87.179 E8.79301
G1 X65.272 Y85.529 E8.84779
G1 X66.154 Y83.570 E8.91427
G1 X67.334 Y81.335 E8.99246
G1 X68.452 Y79.501 E9.05894
G1 X69.452 Y78.039 E9.11372
G1 X70.995 Y76.038 E9.19191
G1 X72.154 Y74.700 E9.24669
G1 X73.592 Y73.206 E9.31085
G1 E7.31085 F2400.00000
G92 E0
G1 X99.501 Y114.967 F7800.000
G1 E2.00000 F2400.00000
G1 X99.512 Y114.611 E2.01101 F1800.000
G1 X99.979 Y114.494 E2.02589
G1 X100.594 Y114.481 E2.04493
G1 X101.210 Y114.443 E2.06401
G1 X101.862 Y114.373 E2.08430
G1 X103.033 Y114.172 E2.12107
G1 X103.595 Y114.041 E2.13892
G1 X104.264 Y113.852 E2.16044
G1 X104.767 Y113.687 E2.17683
G1 X105.423 Y113.440 E2.19851
G1 X105.880 Y113.247 E2.21386
G1 X106.544 Y112.932 E2.23659
G1 X106.965 Y112.710 E2.25132
G1 X107.617 Y112.331 E2.27466
G1 X108.635 Y111.640 E2.31273
G1 X109.560 Y110.894 E2.34950
G1 X109.900 Y110.586 E2.36370
G1 X110.479 Y110.014 E2.38887
G1 X111.264 Y109.122 E2.42564
G1 X111.997 Y108.134 E2.46370
G1 X112.656 Y107.063 E2.50262
G1 X113.199 Y105.990 E2.53982
G1 X113.674 Y104.809 E2.57920
G1 X114.033 Y103.632 E2.61727
G1 X114.332 Y102.173 E2.66337
G1 X114.465 Y100.945 E2.70157
G1 X114.606 Y100.487 E2.71640
G1 X130.363 Y100.506 E3.20392
G1 X130.476 Y101.031 E3.22054
G1 X130.444 Y101.741 E3.24253
G1 X130.295 Y103.476 E3.29641
G1 X130.145 Y104.599 E3.33147
G1 X129.815 Y106.401 E3.38814
G1 X129.702 Y106.907 E3.40419
G1 X129.259 Y108.591 E3.45808
G1 X128.853 Y109.874 E3.49970
G1 X128.230 Y111.534 E3.55457
G1 X127.500 Y113.182 E3.61035
G1 X126.659 Y114.810 E3.66704
G1 X125.656 Y116.488 E3.72753
G1 X124.673 Y117.926 E3.78142
G1 X123.648 Y119.260 E3.83347
G1 X122.471 Y120.623 E3.88921
G1 X121.241 Y121.886 E3.94374
G1 X119.972 Y123.049 E3.99700
G1 X118.477 Y124.263 E4.05661
G1 X116.986 Y125.328 E4.11330
G1 X115.477 Y126.277 E4.16844
G1 X114.231 Y126.971 E4.21257
G1 X112.668 Y127.739 E4.26646
G1 X111.064 Y128.417 E4.32035
G1 X109.423 Y129.002 E4.37423
G1 X107.752 Y129.492 E4.42811
G1 X106.036 Y129.890 E4.48264
G1 X104.340 Y130.183 E4.53589
G1 X103.632 Y130.276 E4.55798
G1 X102.609 Y130.381 E4.58978
G1 X101.817 Y130.439 E4.61438
G1 X100.871 Y130.481 E4.64367
G1 X100.015 Y130.494 E4.67017
G1 X99.494 Y130.364 E4.68677
G1 X99.501 Y114.967 E5.16319
G1 X100.314 Y114.987 F7800.000
G1 X99.359 Y114.542 E5.19580 F1800.000
G1 X99.055 Y114.464 E5.20550
G1 X97.836 Y114.332 E5.24343
G1 X96.656 Y114.104 E5.28063
G1 X95.735 Y113.854 E5.31014
G1 X94.615 Y113.458 E5.34691
G1 X93.284 Y112.847 E5.39221
G1 X92.243 Y112.247 E5.42941
G1 X91.363 Y111.643 E5.46243
G1 X90.337 Y110.807 E5.50337
G1 X89.464 Y109.959 E5.54101
G1 X88.675 Y109.053 E5.57821
G1 X87.963 Y108.083 E5.61541
G1 X87.335 Y107.058 E5.65262
G1 X86.793 Y105.985 E5.68983
G1 X86.343 Y104.870 E5.72703
G1 X85.987 Y103.721 E5.76424
G1 X85.727 Y102.547 E5.80144
G1 X85.554 Y101.208 E5.84321
G1 X85.503 Y100.021 E5.87998
G1 X85.542 Y98.954 E5.91303
G1 X85.678 Y97.759 E5.95023
G1 X85.913 Y96.580 E5.98743
G1 X86.241 Y95.438 E6.02419
G1 X86.672 Y94.301 E6.06183
G1 X87.190 Y93.216 E6.09901
G1 X87.356 Y92.913 E6.10972
G1 X87.979 Y91.901 E6.14649
G1 X88.487 Y91.194 E6.17341
G1 X89.247 Y90.282 E6.21016
G1 X90.100 Y89.414 E6.24780
G1 X91.011 Y88.630 E6.28498
G1 X91.972 Y87.933 E6.32173
G1 X93.012 Y87.302 E6.35937
G1 X94.088 Y86.767 E6.39655
G1 X95.192 Y86.328 E6.43330
G1 X96.355 Y85.972 E6.47094
G1 X96.967 Y85.828 E6.49039
G1 X98.138 Y85.627 E6.52716
G1 X98.708 Y85.564 E6.54488
G1 X99.923 Y85.507 E6.58252
G1 X101.124 Y85.550 E6.61970
G1 X102.303 Y85.691 E6.65645
G1 X103.495 Y85.934 E6.69409
G1 X104.648 Y86.271 E6.73128
G1 X105.770 Y86.704 E6.76847
G1 X106.544 Y87.067 E6.79493
G1 X107.582 Y87.647 E6.83170
G1 X107.887 Y87.839 E6.84286
G1 X108.868 Y88.534 E6.88005
G1 X109.787 Y89.308 E6.91725
G1 X110.640 Y90.155 E6.95444
G1 X111.419 Y91.071 E6.99164
G1 X112.120 Y92.047 E7.02884
G1 X112.666 Y92.948 E7.06144
G1 X113.268 Y94.158 E7.10324
G1 X113.707 Y95.277 E7.14044
G1 X114.053 Y96.434 E7.17780
G1 X114.293 Y97.568 E7.21367
G1 X114.443 Y98.737 E7.25013
G1 X114.500 Y100.021 E7.28990
G1 X114.888 Y101.722 E7.34390
G1 E5.34390 F2400.00000
G92 E0
G1 X130.016 Y101.785 F7800.000
G1 E2.00000 F2400.00000
G1 X130.500 Y100.000 E2.05722 F1800.000
G1 X130.450 Y98.259 E2.11112
G1 X130.288 Y96.426 E2.16805
G1 X130.051 Y94.799 E2.21891
G1 X129.705 Y93.092 E2.27280
G1 X129.198 Y91.195 E2.33358
G1 X128.643 Y89.530 E2.38786
G1 X128.091 Y88.129 E2.43448
G1 X127.225 Y86.259 E2.49821
G1 X126.375 Y84.692 E2.55339
G1 X125.407 Y83.136 E2.61009
G1 X124.408 Y81.719 E2.66374
G1 X123.607 Y80.696 E2.70392
G1 X122.467 Y79.380 E2.75781
G1 X122.107 Y78.996 E2.77410
G1 X120.820 Y77.720 E2.83017
G1 X119.482 Y76.541 E2.88534
G1 X118.621 Y75.852 E2.91947
G1 X117.229 Y74.840 E2.97272
G1 X115.747 Y73.887 E3.02725
G1 X115.088 Y73.501 E3.05087
G1 X114.230 Y73.030 E3.08114
G1 X112.667 Y72.262 E3.13502
G1 X111.893 Y71.921 E3.16122
G1 X111.063 Y71.584 E3.18891
G1 X110.258 Y71.284 E3.21550
G1 X109.442 Y71.006 E3.24217
G1 X107.752 Y70.508 E3.29669
G1 X106.056 Y70.114 E3.35057
G1 X105.088 Y69.934 E3.38103
G1 X104.340 Y69.817 E3.40447
G1 X103.322 Y69.688 E3.43621
G1 X102.610 Y69.618 E3.45836
G1 X101.515 Y69.544 E3.49229
G1 X100.891 Y69.519 E3.51162
G1 X99.129 Y69.518 E3.56614
G1 X97.390 Y69.618 E3.62002
G1 X96.205 Y69.743 E3.65691
G1 X94.443 Y70.016 E3.71209
G1 X92.671 Y70.399 E3.76817
G1 X90.576 Y70.997 E3.83558
G1 X89.267 Y71.456 E3.87851
G1 X87.643 Y72.120 E3.93279
G1 X86.008 Y72.903 E3.98886
G1 X84.448 Y73.766 E4.04405
G1 X82.786 Y74.825 E4.10502
G1 X81.492 Y75.760 E4.15440
G1 X80.129 Y76.864 E4.20868
G1 X78.789 Y78.085 E4.26477
G1 X77.544 Y79.362 E4.31997
G1 X76.389 Y80.694 E4.37450
G1 X75.326 Y82.073 E4.42839
G1 X74.303 Y83.574 E4.48460
G1 X73.387 Y85.104 E4.53978
G1 X72.550 Y86.712 E4.59587
G1 X71.909 Y88.128 E4.64397
G1 X71.277 Y89.752 E4.69786
G1 X70.661 Y91.680 E4.76050
G1 X70.219 Y93.437 E4.81657
G1 X69.886 Y95.190 E4.87176
G1 X69.704 Y96.524 E4.91342
G1 X69.555 Y98.259 E4.96731
G1 X69.505 Y100.000 E5.02120
G1 X69.509 Y100.491 E5.03638
G1 X69.594 Y102.321 E5.09309
G1 X69.779 Y104.074 E5.14763
G1 X70.064 Y105.805 E5.20191
G1 X70.299 Y106.907 E5.23675
G1 X70.741 Y108.591 E5.29063
G1 X70.955 Y109.287 E5.31316
G1 X71.280 Y110.247 E5.34453
G1 X71.912 Y111.870 E5.39841
G1 X72.635 Y113.454 E5.45230
G1 X73.022 Y114.214 E5.47868
G1 X73.448 Y114.995 E5.50619
G1 X73.884 Y115.742 E5.53296
G1 X74.347 Y116.486 E5.56008
G1 X74.849 Y117.242 E5.58814
G1 X75.330 Y117.924 E5.61397
G1 X75.912 Y118.699 E5.64396
G1 X76.394 Y119.303 E5.66786
G1 X77.033 Y120.059 E5.69850
G1 X77.534 Y120.619 E5.72175
G1 X78.265 Y121.388 E5.75458
G1 X78.748 Y121.868 E5.77564
G1 X80.031 Y123.046 E5.82953
G1 X81.379 Y124.148 E5.88342
G1 X82.308 Y124.837 E5.91920
G1 X83.814 Y125.844 E5.97527
G1 X85.353 Y126.747 E6.03045
G1 X85.769 Y126.970 E6.04508
G1 X87.332 Y127.739 E6.09897
G1 X88.936 Y128.418 E6.15286
G1 X90.218 Y128.884 E6.19508
G1 X92.247 Y129.494 E6.26064
G1 X93.944 Y129.889 E6.31453
G1 X95.660 Y130.187 E6.36842
G1 X97.390 Y130.386 E6.42231
G1 X98.969 Y130.480 E6.47124
G1 X99.129 Y130.477 E6.47621
G1 X100.737 Y129.978 E6.52829
G1 Z0.650 F7800.000
G1 E4.52829 F2400.00000
G92 E0
G1 X130.250 Y100.750 F7800.000
G1 E2.00000 F2400.00000
G1 X130.118 Y102.817 E2.03830 F1800.000
G1 X129.899 Y104.591 E2.07135
G1 X129.576 Y106.349 E2.10439
G1 X129.164 Y108.029 E2.13636
G1 X128.621 Y109.793 E2.17049
G1 X127.993 Y111.466 E2.20354
G1 X127.266 Y113.100 E2.23659
G1 X126.445 Y114.687 E2.26964
G1 X125.531 Y116.224 E2.30268
G1 X124.562 Y117.656 E2.33465
G1 X123.440 Y119.121 E2.36878
G1 X122.270 Y120.473 E2.40183
G1 X121.021 Y121.752 E2.43488
G1 X119.700 Y122.956 E2.46793
G1 X118.310 Y124.080 E2.50098
G1 X116.855 Y125.119 E2.53402
G1 X115.392 Y126.040 E2.56599
G1 X113.776 Y126.931 E2.60012
G1 X112.161 Y127.698 E2.63317
G1 X110.503 Y128.368 E2.66622
G1 X108.810 Y128.939 E2.69927
G1 X107.085 Y129.409 E2.73232
G1 X105.335 Y129.776 E2.76537
G1 X103.625 Y130.031 E2.79733
G1 X101.787 Y130.197 E2.83146
G1 X99.750 Y130.258 E2.86913
G1 X99.750 Y114.760 E3.15565
G1 X101.231 Y114.698 E3.18305
G1 X102.453 Y114.544 E3.20582
G1 X103.657 Y114.289 E3.22859
G1 X104.875 Y113.919 E3.25212
G1 X105.983 Y113.482 E3.27413
G1 X107.087 Y112.936 E3.29691
G1 X108.141 Y112.299 E3.31968
G1 X109.139 Y111.577 E3.34245
G1 X110.073 Y110.774 E3.36522
G1 X110.937 Y109.896 E3.38799
G1 X111.725 Y108.949 E3.41077
G1 X112.430 Y107.940 E3.43353
G1 X113.067 Y106.838 E3.45707
G1 X113.578 Y105.762 E3.47908
G1 X114.011 Y104.610 E3.50185
G1 X114.347 Y103.424 E3.52462
G1 X114.582 Y102.216 E3.54740
G1 X114.742 Y100.750 E3.57465
G1 X130.175 Y100.750 E3.85997
G1 X130.749 Y100.771 F7800.000
G1 X114.243 Y100.105 F7800.000
G1 X114.199 Y101.208 E3.88039 F1800.000
G1 X114.045 Y102.408 E3.90276
G1 X113.790 Y103.591 E3.92512
G1 X113.436 Y104.747 E3.94748
G1 X112.985 Y105.870 E3.96985
G1 X112.420 Y106.984 E3.99295
G1 X111.806 Y107.980 E4.01457
G1 X111.087 Y108.952 E4.03693
G1 X110.288 Y109.860 E4.05930
G1 X109.415 Y110.697 E4.08166
G1 X108.474 Y111.457 E4.10402
G1 X107.471 Y112.134 E4.12639
G1 X106.416 Y112.724 E4.14875
G1 X105.313 Y113.223 E4.17111
G1 X104.173 Y113.626 E4.19348
G1 X103.002 Y113.930 E4.21584
G1 X101.810 Y114.135 E4.23820
G1 X100.605 Y114.237 E4.26057
G1 X99.395 Y114.237 E4.28293
G1 X98.190 Y114.135 E4.30529
G1 X96.998 Y113.930 E4.32766
G1 X95.827 Y113.626 E4.35002
G1 X94.687 Y113.223 E4.37238
G1 X93.584 Y112.724 E4.39475
G1 X92.529 Y112.134 E4.41711
G1 X91.526 Y111.457 E4.43947
G1 X90.585 Y110.697 E4.46184
G1 X89.712 Y109.860 E4.48420
G1 X88.913 Y108.952 E4.50656
G1 X88.194 Y107.980 E4.52893
G1 X87.559 Y106.950 E4.55129
G1 X87.015 Y105.870 E4.57365
G1 X86.564 Y104.747 E4.59602
G1 X86.210 Y103.591 E4.61838
G1 X85.955 Y102.408 E4.64075
G1 X85.799 Y101.169 E4.66384
G1 X85.750 Y100.000 E4.68547
G1 X85.801 Y98.791 E4.70783
G1 X85.955 Y97.592 E4.73019
G1 X86.210 Y96.409 E4.75256
G1 X86.564 Y95.253 E4.77492
G1 X87.015 Y94.130 E4.79728
G1 X87.559 Y93.050 E4.81965
G1 X88.194 Y92.020 E4.84201
G1 X88.913 Y91.048 E4.86437
G1 X89.712 Y90.140 E4.88674
G1 X90.585 Y89.303 E4.90910
G1 X91.526 Y88.543 E4.93146
G1 X92.529 Y87.865 E4.95383
G1 X93.621 Y87.259 E4.97692
G1 X94.687 Y86.777 E4.99855
G1 X95.827 Y86.374 E5.02091
G1 X96.998 Y86.070 E5.04328
G1 X98.190 Y85.865 E5.06564
G1 X99.395 Y85.763 E5.08800
G1 X100.605 Y85.763 E5.11037 F1800.000
G1 X101.810 Y85.865 E5.13273
G1 X103.003 Y86.070 E5.15510
G1 X104.210 Y86.388 E5.17819
G1 X105.313 Y86.777 E5.19982
G1 X106.416 Y87.276 E5.22218
G1 X107.471 Y87.866 E5.24454
G1 X108.474 Y88.543 E5.26691
G1 X109.415 Y89.303 E5.28928
G1 X110.314 Y90.170 E5.31237
G1 X111.087 Y91.048 E5.33399
G1 X111.806 Y92.020 E5.35636
G1 X112.441 Y93.050 E5.37872
G1 X112.985 Y94.130 E5.40108
G1 X113.436 Y95.253 E5.42345
G1 X113.802 Y96.459 E5.44674
G1 X114.044 Y97.585 E5.46805
G1 X114.195 Y98.756 E5.48988
G1 X114.246 Y100.030 E5.51344
G1 X114.673 Y100.361 F7800.000
G1 X114.761 Y100.250 F7800.000
G1 X114.699 Y98.773 E5.54078 F1800.000
G1 X114.547 Y97.564 E5.56331
G1 X114.299 Y96.382 E5.58564
G1 X113.945 Y95.195 E5.60853
G1 X113.499 Y94.056 E5.63114
G1 X112.960 Y92.958 E5.65375
G1 X112.332 Y91.909 E5.67636
G1 X111.620 Y90.915 E5.69898
G1 X110.827 Y89.983 E5.72159
G1 X109.960 Y89.121 E5.74421
G1 X109.024 Y88.333 E5.76682
G1 X108.027 Y87.625 E5.78943
G1 X106.974 Y87.003 E5.81205
G1 X105.873 Y86.470 E5.83466
G1 X104.732 Y86.030 E5.85727
G1 X103.558 Y85.686 E5.87988
G1 X102.319 Y85.435 E5.90326
G1 X101.145 Y85.295 E5.92511
G1 X99.923 Y85.250 E5.94772
G1 X98.660 Y85.313 E5.97109
G1 X97.488 Y85.466 E5.99295
G1 X96.293 Y85.724 E6.01556
G1 X95.084 Y86.095 E6.03893
G1 X93.986 Y86.532 E6.06079
G1 X92.891 Y87.076 E6.08340
G1 X91.811 Y87.734 E6.10677
G1 X90.854 Y88.428 E6.12863
G1 X89.927 Y89.225 E6.15123
G1 X89.042 Y90.129 E6.17461
G1 X88.286 Y91.037 E6.19646
G1 X87.584 Y92.038 E6.21908
G1 X86.967 Y93.094 E6.24169
G1 X86.439 Y94.198 E6.26430
G1 X85.993 Y95.381 E6.28767
G1 X85.667 Y96.517 E6.30953
G1 X85.428 Y97.717 E6.33214
G1 X85.289 Y98.932 E6.35476
G1 X85.251 Y100.154 E6.37737
G1 X85.320 Y101.417 E6.40074
G1 X85.479 Y102.588 E6.42259
G1 X85.743 Y103.782 E6.44521
G1 X86.106 Y104.950 E6.46782
G1 X86.564 Y106.084 E6.49044
G1 X87.114 Y107.177 E6.51305
G1 X87.753 Y108.220 E6.53566
G1 X88.476 Y109.206 E6.55828
G1 X89.278 Y110.129 E6.58088
G1 X90.186 Y111.009 E6.60426
G1 X91.098 Y111.761 E6.62611
G1 X92.103 Y112.458 E6.64873
G1 X93.163 Y113.069 E6.67134
G1 X94.269 Y113.591 E6.69396
G1 X95.415 Y114.019 E6.71657
G1 X96.592 Y114.351 E6.73918
G1 X97.793 Y114.584 E6.76180
G1 X99.250 Y114.742 E6.78889
