; generated by Slic3r 1.2.9 on 2018-10-23 at 22:00:14

; external perimeters extrusion width = 0.30mm
; perimeters extrusion width = 0.31mm
; infill extrusion width = 0.31mm
; solid infill extrusion width = 0.31mm
; top infill extrusion width = 0.31mm

M107
M104 S200 ; set temperature
G28 ; home all axes
G1 Z5 F5000 ; lift nozzle

M109 S200 ; wait for temperature to be reached
G21 ; set units to millimeters
G90 ; use absolute coordinates
M82 ; use absolute distances for extrusion
G92 E0
G1 Z0.300 F7800.000
G1 E-2.00000 F2400.00000
G92 E0
G1 X73.708 Y73.214 F7800.000
G1 E2.00000 F2400.00000
G1 X75.562 Y71.512 E2.05721 F1800.000
G1 X77.228 Y70.164 E2.10594
G1 X78.969 Y68.912 E2.15466
G1 X80.458 Y67.955 E2.19492
G1 X82.320 Y66.892 E2.24365
G1 X84.238 Y65.936 E2.29238
G1 X86.209 Y65.092 E2.34110
G1 X88.596 Y64.241 E2.39872
G1 X90.638 Y63.653 E2.44703
G1 X92.729 Y63.178 E2.49577
G1 X94.843 Y62.823 E2.54450
G1 X96.974 Y62.589 E2.59323
G1 X99.115 Y62.477 E2.64196
G1 X101.258 Y62.488 E2.69068
G1 X103.026 Y62.589 E2.73094 F1800.000
G1 X105.157 Y62.823 E2.77967
G1 X107.637 Y63.252 E2.83688
G1 X109.722 Y63.747 E2.88560
G1 X111.421 Y64.246 E2.92586
G1 X113.791 Y65.092 E2.98306
G1 X115.422 Y65.781 E3.02331
G1 X117.350 Y66.718 E3.07204
G1 X119.541 Y67.955 E3.12925
G1 X121.339 Y69.123 E3.17798
G1 X122.772 Y70.164 E3.21823
G1 X124.720 Y71.757 E3.27544
G1 X126.292 Y73.214 E3.32417
G1 X127.526 Y74.484 E3.36442
G1 X129.174 Y76.386 E3.42163
G1 X130.255 Y77.788 E3.46187
G1 X131.474 Y79.551 E3.51060
G1 X132.773 Y81.706 E3.56780
G1 X133.764 Y83.607 E3.61653
G1 X134.500 Y85.218 E3.65679
G1 X135.413 Y87.563 E3.71400
G1 X135.960 Y89.247 E3.75425
G1 X136.515 Y91.317 E3.80298
G1 X137.015 Y93.783 E3.86018
G1 X137.310 Y95.906 E3.90890
G1 X137.461 Y97.671 E3.94917
G1 X137.533 Y100.186 E4.00636
G1 X137.461 Y102.329 E4.05510
G1 X137.267 Y104.464 E4.10384
G1 X137.015 Y106.216 E4.14408
G1 X136.515 Y108.683 E4.20129
G1 X136.065 Y110.395 E4.24154
G1 X135.413 Y112.437 E4.29027
G1 X134.500 Y114.782 E4.34748
G1 X133.764 Y116.393 E4.38773
G1 X132.773 Y118.294 E4.43646
G1 X131.474 Y120.448 E4.49365
G1 X130.475 Y121.910 E4.53391
G1 X129.174 Y123.614 E4.58264
G1 X127.526 Y125.516 E4.63985
G1 X126.024 Y127.046 E4.68858
G1 X124.720 Y128.243 E4.72883
G1 X122.772 Y129.836 E4.78603
G1 X121.339 Y130.877 E4.82629
G1 X119.542 Y132.045 E4.87502
G1 X117.351 Y133.282 E4.93222
G1 X115.762 Y134.064 E4.97248
G1 X113.791 Y134.908 E5.02120
G1 X111.421 Y135.754 E5.07841
G1 X109.362 Y136.347 E5.12713
G1 X107.637 Y136.748 E5.16739
G1 X105.157 Y137.177 E5.22459
G1 X103.026 Y137.411 E5.27333
G1 X101.258 Y137.512 E5.31358
G1 X98.742 Y137.512 E5.37079
G1 X96.974 Y137.411 E5.41104
G1 X94.843 Y137.177 E5.45977
G1 X92.363 Y136.748 E5.51698
G1 X90.278 Y136.253 E5.56570
G1 X88.579 Y135.754 E5.60595
G1 X86.209 Y134.908 E5.66316
G1 X84.578 Y134.219 E5.70341
G1 X82.650 Y133.282 E5.75214
G1 X80.458 Y132.045 E5.80935
G1 X78.969 Y131.088 E5.84960
G1 X77.228 Y129.836 E5.89833
G1 X75.280 Y128.243 E5.95554
G1 X73.708 Y126.786 E6.00426
G1 X72.474 Y125.516 E6.04451
G1 X70.826 Y123.615 E6.10172
G1 X69.745 Y122.212 E6.14197
G1 X68.526 Y120.449 E6.19070
G1 X67.227 Y118.294 E6.24791
G1 X66.400 Y116.728 E6.28816
G1 X65.500 Y114.782 E6.33689
G1 X64.587 Y112.437 E6.39410
G1 X64.040 Y110.753 E6.43435
G1 X63.485 Y108.683 E6.48308
G1 X62.985 Y106.216 E6.54029
G1 X62.690 Y104.093 E6.58901
G1 X62.539 Y102.329 E6.62926
G1 X62.467 Y99.814 E6.68646
G1 X62.539 Y97.671 E6.73519
G1 X62.690 Y95.907 E6.77545
G1 X63.049 Y93.416 E6.83266
G1 X63.485 Y91.317 E6.88138
G1 X63.935 Y89.605 E6.92164
G1 X64.712 Y87.212 E6.97884
G1 X65.355 Y85.561 E7.01910
G1 X66.236 Y83.607 E7.06782
G1 X67.410 Y81.381 E7.12504
G1 X68.526 Y79.551 E7.17376
G1 X69.526 Y78.090 E7.21401
G1 X71.062 Y76.097 E7.27122
G1 X72.222 Y74.759 E7.31147
G1 X73.677 Y73.246 E7.35918
G1 E5.35918 F2400.00000
G92 E0
G1 X130.303 Y100.700 F7800.000
G1 E2.00000 F2400.00000
G1 X130.170 Y102.805 E2.04795 F1800.000
G1 X129.951 Y104.583 E2.08867
G1 X129.628 Y106.345 E2.12938
G1 X129.206 Y108.067 E2.16971
G1 X128.673 Y109.796 E2.21082
G1 X128.044 Y111.473 E2.25154
G1 X127.317 Y113.110 E2.29226
G1 X126.495 Y114.701 E2.33297
G1 X125.580 Y116.241 E2.37369
G1 X124.585 Y117.710 E2.41401
G1 X123.485 Y119.145 E2.45513
G1 X122.313 Y120.500 E2.49585
G1 X121.063 Y121.782 E2.53656
G1 X119.739 Y122.989 E2.57728
G1 X118.346 Y124.115 E2.61800
G1 X116.889 Y125.157 E2.65872
G1 X115.388 Y126.102 E2.69904
G1 X113.803 Y126.973 E2.74015
G1 X112.185 Y127.742 E2.78087
G1 X110.525 Y128.414 E2.82159
G1 X108.827 Y128.986 E2.86231
G1 X107.099 Y129.457 E2.90303
G1 X105.346 Y129.825 E2.94374
G1 X103.592 Y130.086 E2.98406
G1 X101.790 Y130.247 E3.02518
G1 X99.700 Y130.309 E3.07272
G1 X99.700 Y114.712 E3.42727
G1 X101.227 Y114.648 E3.46201
G1 X102.445 Y114.495 E3.48992
G1 X103.646 Y114.240 E3.51783
G1 X104.833 Y113.882 E3.54602
G1 X105.964 Y113.436 E3.57365
G1 X107.064 Y112.891 E3.60156
G1 X108.115 Y112.256 E3.62947
G1 X109.110 Y111.536 E3.65739
G1 X110.041 Y110.736 E3.68530
G1 X110.902 Y109.861 E3.71321
G1 X111.687 Y108.916 E3.74112
G1 X112.390 Y107.910 E3.76903
G1 X113.012 Y106.837 E3.79722
G1 X113.533 Y105.739 E3.82485
G1 X113.965 Y104.590 E3.85276
G1 X114.299 Y103.408 E3.88068
G1 X114.534 Y102.203 E3.90859
G1 X114.698 Y100.700 E3.94295
G1 X130.258 Y100.700 E4.29668
G1 X130.603 Y100.713 F7800.000
G1 X114.298 Y100.031 F7800.000
G1 X114.249 Y101.213 E4.32357 F1800.000
G1 X114.095 Y102.417 E4.35116
G1 X113.839 Y103.603 E4.37876
G1 X113.483 Y104.764 E4.40635
G1 X113.031 Y105.890 E4.43394
G1 X112.484 Y106.974 E4.46154
G1 X111.848 Y108.008 E4.48913
G1 X111.126 Y108.984 E4.51672
G1 X110.324 Y109.895 E4.54432
G1 X109.438 Y110.742 E4.57218
G1 X108.503 Y111.497 E4.59950
G1 X107.498 Y112.177 E4.62710
G1 X106.438 Y112.769 E4.65469
G1 X105.332 Y113.269 E4.68228
G1 X104.187 Y113.673 E4.70988
G1 X103.013 Y113.979 E4.73747
G1 X101.816 Y114.184 E4.76507
G1 X100.607 Y114.287 E4.79266
G1 X99.393 Y114.287 E4.82025
G1 X98.184 Y114.184 E4.84785
G1 X96.987 Y113.979 E4.87544
G1 X95.813 Y113.673 E4.90303
G1 X94.668 Y113.269 E4.93063
G1 X93.562 Y112.769 E4.95822
G1 X92.502 Y112.177 E4.98581
G1 X91.497 Y111.497 E5.01341
G1 X90.552 Y110.735 E5.04100
G1 X89.676 Y109.895 E5.06859
G1 X88.874 Y108.984 E5.09619
G1 X88.152 Y108.008 E5.12378
G1 X87.516 Y106.974 E5.15137
G1 X86.969 Y105.890 E5.17897
G1 X86.517 Y104.764 E5.20656
G1 X86.161 Y103.603 E5.23415
G1 X85.905 Y102.417 E5.26175
G1 X85.751 Y101.201 E5.28961
G1 X85.700 Y100.000 E5.31693
G1 X85.751 Y98.787 E5.34453
G1 X85.905 Y97.583 E5.37212
G1 X86.161 Y96.397 E5.39972
G1 X86.517 Y95.236 E5.42731
G1 X86.969 Y94.110 E5.45490
G1 X87.516 Y93.026 E5.48250
G1 X88.152 Y91.992 E5.51009
G1 X88.874 Y91.016 E5.53768
G1 X89.676 Y90.105 E5.56528
G1 X90.552 Y89.265 E5.59287
G1 X91.497 Y88.503 E5.62046
G1 X92.502 Y87.823 E5.64806
G1 X93.562 Y87.231 E5.67565
G1 X94.668 Y86.731 E5.70324
G1 X95.813 Y86.327 E5.73084
G1 X96.987 Y86.021 E5.75843
G1 X98.184 Y85.816 E5.78602
G1 X99.393 Y85.713 E5.81362
G1 X100.607 Y85.713 E5.84121 F1800.000
G1 X101.816 Y85.816 E5.86880
G1 X103.013 Y86.021 E5.89640
G1 X104.199 Y86.331 E5.92426
G1 X105.332 Y86.731 E5.95158
G1 X106.438 Y87.231 E5.97918
G1 X107.498 Y87.823 E6.00677
G1 X108.503 Y88.503 E6.03437
G1 X109.448 Y89.265 E6.06196
G1 X110.332 Y90.114 E6.08982
G1 X111.126 Y91.016 E6.11714
G1 X111.848 Y91.992 E6.14474
G1 X112.484 Y93.026 E6.17233
G1 X113.031 Y94.110 E6.19993
G1 X113.483 Y95.236 E6.22752
G1 X113.842 Y96.411 E6.25546
G1 X114.094 Y97.581 E6.28266
G1 X114.248 Y98.777 E6.31006
G1 X114.300 Y99.986 E6.33757
G1 X114.556 Y100.185 F7800.000
G1 X114.713 Y100.300 F7800.000
G1 X114.649 Y98.780 E6.37214 F1800.000
G1 X114.498 Y97.572 E6.39983
G1 X114.248 Y96.384 E6.42743
G1 X113.898 Y95.211 E6.45525
G1 X113.453 Y94.076 E6.48296
G1 X112.916 Y92.982 E6.51067
G1 X112.290 Y91.936 E6.53838
G1 X111.580 Y90.945 E6.56610
G1 X110.790 Y90.017 E6.59381
G1 X109.925 Y89.157 E6.62152
G1 X108.993 Y88.372 E6.64923
G1 X107.998 Y87.667 E6.67695
G1 X106.949 Y87.046 E6.70466
G1 X105.852 Y86.515 E6.73237
G1 X104.714 Y86.077 E6.76008
G1 X103.544 Y85.734 E6.78779
G1 X102.338 Y85.488 E6.81579
G1 X101.139 Y85.344 E6.84322
G1 X99.921 Y85.300 E6.87093
G1 X98.691 Y85.359 E6.89892
G1 X97.495 Y85.515 E6.92636
G1 X96.303 Y85.773 E6.95407
G1 X95.125 Y86.132 E6.98206
G1 X94.004 Y86.579 E7.00949
G1 X92.913 Y87.122 E7.03720
G1 X91.860 Y87.760 E7.06520
G1 X90.883 Y88.469 E7.09263
G1 X89.959 Y89.264 E7.12034
G1 X89.096 Y90.142 E7.14833
G1 X88.324 Y91.070 E7.17577
G1 X87.624 Y92.068 E7.20348
G1 X87.009 Y93.121 E7.23119
G1 X86.484 Y94.221 E7.25890
G1 X86.048 Y95.372 E7.28690
G1 X85.715 Y96.532 E7.31433
G1 X85.477 Y97.728 E7.34204
G1 X85.339 Y98.939 E7.36975
G1 X85.301 Y100.157 E7.39746
G1 X85.366 Y101.387 E7.42546
G1 X85.529 Y102.583 E7.45289
G1 X85.793 Y103.773 E7.48060
G1 X86.154 Y104.937 E7.50832
G1 X86.611 Y106.068 E7.53603
G1 X87.160 Y107.156 E7.56374
G1 X87.797 Y108.196 E7.59145
G1 X88.518 Y109.179 E7.61917
G1 X89.318 Y110.098 E7.64688
G1 X90.201 Y110.957 E7.67487
G1 X91.132 Y111.724 E7.70230
G1 X92.134 Y112.418 E7.73001
G1 X93.190 Y113.027 E7.75773
G1 X94.293 Y113.547 E7.78544
G1 X95.435 Y113.973 E7.81315
G1 X96.609 Y114.303 E7.84086
G1 X97.806 Y114.535 E7.86858
G1 X99.300 Y114.697 E7.90275
G1 X99.300 Y130.303 E8.25749
G1 X97.214 Y130.172 E8.30500
G1 X95.473 Y129.960 E8.34488
G1 X93.712 Y129.640 E8.38556
G1 X91.990 Y129.222 E8.42584
G1 X90.296 Y128.704 E8.46611
G1 X88.635 Y128.088 E8.50639
G1 X87.028 Y127.383 E8.54627
G1 X85.434 Y126.569 E8.58695
G1 X83.906 Y125.673 E8.62723
G1 X82.433 Y124.688 E8.66751
G1 X81.020 Y123.619 E8.70778
G1 X79.685 Y122.481 E8.74766
G1 X78.393 Y121.243 E8.78834
G1 X77.189 Y119.943 E8.82862
G1 X76.073 Y118.590 E8.86850
G1 X75.017 Y117.145 E8.90917
G1 X74.058 Y115.655 E8.94945
G1 X73.187 Y114.112 E8.98973
G1 X72.408 Y112.521 E9.03001
G1 X71.730 Y110.903 E9.06989
G1 X71.135 Y109.215 E9.11057
G1 X70.646 Y107.512 E9.15085
G1 X70.257 Y105.784 E9.19112
G1 X69.970 Y104.035 E9.23140
G1 X69.787 Y102.290 E9.27128
G1 X69.704 Y100.503 E9.31196
G1 X69.726 Y98.731 E9.35224
G1 X69.851 Y96.981 E9.39212
G1 X70.081 Y95.207 E9.43279
G1 X70.413 Y93.466 E9.47307
G1 X70.845 Y91.748 E9.51335
G1 X71.377 Y90.058 E9.55363
G1 X72.001 Y88.418 E9.59351
G1 X72.733 Y86.786 E9.63418
G1 X73.552 Y85.214 E9.67446
G1 X74.462 Y83.694 E9.71474
G1 X75.459 Y82.229 E9.75502
G1 X76.528 Y80.838 E9.79490
G1 X77.700 Y79.486 E9.83557
G1 X78.937 Y78.218 E9.87585
G1 X80.247 Y77.024 E9.91613
G1 X81.623 Y75.909 E9.95641
G1 X83.049 Y74.886 E9.99629
G1 X84.560 Y73.929 E10.03697
G1 X86.111 Y73.071 E10.07725
G1 X87.709 Y72.305 E10.11752
G1 X89.348 Y71.634 E10.15780
G1 X91.008 Y71.065 E10.19768
G1 X92.732 Y70.585 E10.23836
G1 X94.464 Y70.210 E10.27864
G1 X96.214 Y69.937 E10.31892
G1 X97.978 Y69.767 E10.35919
G1 X99.731 Y69.701 E10.39907
G1 X101.520 Y69.738 E10.43975
G1 X103.286 Y69.879 E10.48003
G1 X105.041 Y70.122 E10.52031
G1 X106.779 Y70.468 E10.56059
G1 X108.477 Y70.910 E10.60047
G1 X110.179 Y71.461 E10.64114
G1 X111.830 Y72.105 E10.68142
G1 X113.440 Y72.844 E10.72170
G1 X115.005 Y73.676 E10.76198
G1 X116.503 Y74.589 E10.80186
G1 X117.974 Y75.607 E10.84253
G1 X119.369 Y76.699 E10.88281
G1 X120.698 Y77.871 E10.92309
G1 X121.956 Y79.119 E10.96337
G1 X123.139 Y80.438 E11.00365
G1 X124.243 Y81.824 E11.04393
G1 X125.254 Y83.258 E11.08381
G1 X126.199 Y84.777 E11.12448
G1 X127.044 Y86.335 E11.16476
G1 X127.796 Y87.939 E11.20504
G1 X128.454 Y89.584 E11.24532
G1 X129.014 Y91.265 E11.28560
G1 X129.475 Y92.976 E11.32587
G1 X129.831 Y94.694 E11.36575
G1 X130.093 Y96.464 E11.40643
G1 X130.248 Y98.229 E11.44671
G1 X130.309 Y100.300 E11.49381
G1 X114.758 Y100.300 E11.84733
G1 X114.413 Y100.308 F7800.000
G1 X130.678 Y100.756 F7800.000
G1 X130.650 Y101.753 E11.86999 F1800.000
G1 X130.500 Y103.500 E11.90985
G1 X130.250 Y105.235 E11.94971
G1 X129.902 Y106.953 E11.98956
G1 X129.456 Y108.649 E12.02942
G1 X128.915 Y110.317 E12.06928
G1 X128.278 Y111.951 E12.10914
G1 X127.550 Y113.545 E12.14899
G1 X126.732 Y115.096 E12.18885
G1 X125.826 Y116.598 E12.22871
G1 X124.837 Y118.045 E12.26857
G1 X123.766 Y119.433 E12.30842
G1 X122.618 Y120.758 E12.34828
G1 X121.396 Y122.016 E12.38814
G1 X120.104 Y123.201 E12.42800
G1 X118.733 Y124.322 E12.46825
G1 X117.328 Y125.342 E12.50771
G1 X115.853 Y126.290 E12.54757
G1 X114.327 Y127.152 E12.58743
G1 X112.753 Y127.926 E12.62728
G1 X111.138 Y128.608 E12.66714
G1 X109.487 Y129.197 E12.70700
G1 X107.804 Y129.691 E12.74686
G1 X106.097 Y130.088 E12.78671
G1 X104.369 Y130.387 E12.82657
G1 X102.627 Y130.587 E12.86643
G1 X100.877 Y130.687 E12.90629
G1 X99.123 Y130.687 E12.94614
G1 X97.373 Y130.587 E12.98600
G1 X95.631 Y130.387 E13.02586
G1 X93.903 Y130.088 E13.06572
G1 X92.196 Y129.691 E13.10557
G1 X90.513 Y129.197 E13.14543
G1 X88.862 Y128.608 E13.18529
G1 X87.247 Y127.926 E13.22515
G1 X85.673 Y127.152 E13.26500
G1 X84.147 Y126.290 E13.30486
G1 X82.672 Y125.342 E13.34472
G1 X81.253 Y124.311 E13.38458
G1 X79.896 Y123.201 E13.42443
G1 X78.604 Y122.016 E13.46429
G1 X77.382 Y120.758 E13.50415
G1 X76.234 Y119.433 E13.54401
G1 X75.163 Y118.045 E13.58386
G1 X74.165 Y116.583 E13.62412
G1 X73.268 Y115.096 E13.66358
G1 X72.450 Y113.545 E13.70344
G1 X71.722 Y111.951 E13.74329
G1 X71.085 Y110.317 E13.78315
G1 X70.544 Y108.649 E13.82301
G1 X70.098 Y106.953 E13.86287
G1 X69.750 Y105.235 E13.90272
G1 X69.500 Y103.500 E13.94258
G1 X69.350 Y101.753 E13.98244
G1 X69.300 Y100.000 E14.02230
G1 X69.350 Y98.247 E14.06215
G1 X69.500 Y96.500 E14.10201
G1 X69.750 Y94.765 E14.14187
G1 X70.098 Y93.047 E14.18173
G1 X70.544 Y91.351 E14.22158
G1 X71.085 Y89.683 E14.26144
G1 X71.722 Y88.049 E14.30130
G1 X72.450 Y86.455 E14.34116
G1 X73.268 Y84.904 E14.38101
G1 X74.174 Y83.402 E14.42087
G1 X75.174 Y81.941 E14.46113
G1 X76.234 Y80.567 E14.50058
G1 X77.382 Y79.242 E14.54044
G1 X78.604 Y77.984 E14.58030
G1 X79.896 Y76.799 E14.62016
G1 X81.253 Y75.689 E14.66001
G1 X82.672 Y74.658 E14.69987
G1 X84.147 Y73.710 E14.73973
G1 X85.673 Y72.848 E14.77959
G1 X87.247 Y72.074 E14.81944
G1 X88.862 Y71.392 E14.85930
G1 X90.513 Y70.803 E14.89916
G1 X92.213 Y70.305 E14.93942
G1 X93.903 Y69.912 E14.97887
G1 X95.631 Y69.613 E15.01873
G1 X97.373 Y69.413 E15.05859
G1 X99.123 Y69.313 E15.09844
G1 X100.894 Y69.314 E15.13870
G1 X102.627 Y69.413 E15.17816 F1800.000
G1 X104.369 Y69.613 E15.21802
G1 X106.097 Y69.912 E15.25788
G1 X107.804 Y70.309 E15.29773
G1 X109.503 Y70.809 E15.33799
G1 X111.138 Y71.392 E15.37745
G1 X112.753 Y72.074 E15.41731
G1 X114.327 Y72.848 E15.45716
G1 X115.853 Y73.710 E15.49702
G1 X117.343 Y74.668 E15.53728
G1 X118.747 Y75.689 E15.57673
G1 X120.104 Y76.799 E15.61659
G1 X121.396 Y77.984 E15.65645
G1 X122.618 Y79.242 E15.69631
G1 X123.766 Y80.567 E15.73616
G1 X124.837 Y81.955 E15.77602
G1 X125.835 Y83.417 E15.81628
G1 X126.732 Y84.904 E15.85574
G1 X127.550 Y86.455 E15.89559
G1 X128.278 Y88.049 E15.93545
G1 X128.915 Y89.683 E15.97531
G1 X129.456 Y91.351 E16.01517
G1 X129.902 Y93.047 E16.05502
G1 X130.250 Y94.765 E16.09488
G1 X130.500 Y96.500 E16.13474
G1 X130.650 Y98.247 E16.17460
G1 X130.700 Y100.000 E16.21445
G1 X130.680 Y100.711 E16.23063
G1 X130.414 Y100.899 F7800.000
G1 Z0.600 F7800.000
G1 X130.402 Y100.607 F7800.000
G1 X130.261 Y102.828 E16.25430 F3600.000
G1 X130.041 Y104.611 E16.27341
G1 X129.717 Y106.377 E16.29251
G1 X129.302 Y108.071 E16.31105
G1 X128.757 Y109.837 E16.33072
G1 X128.126 Y111.519 E16.34982
G1 X127.396 Y113.160 E16.36893
G1 X126.571 Y114.755 E16.38803
G1 X125.653 Y116.299 E16.40714
G1 X124.676 Y117.743 E16.42568
G1 X123.552 Y119.211 E16.44534
G1 X122.376 Y120.569 E16.46445
G1 X121.122 Y121.854 E16.48355
G1 X119.794 Y123.064 E16.50266
G1 X118.397 Y124.193 E16.52176
G1 X116.936 Y125.237 E16.54087
G1 X115.460 Y126.166 E16.55941
G1 X113.842 Y127.058 E16.57907
G1 X112.219 Y127.829 E16.59818
G1 X110.554 Y128.502 E16.61729
G1 X108.852 Y129.076 E16.63639
G1 X107.119 Y129.548 E16.65549
G1 X105.361 Y129.917 E16.67460
G1 X103.637 Y130.174 E16.69314
G1 X101.796 Y130.340 E16.71280
G1 X99.607 Y130.405 E16.73610
G1 X99.607 Y114.623 E16.90396
G1 X101.219 Y114.556 E16.92112
G1 X102.429 Y114.403 E16.93410
