;FLAVOR:Marlin
;TIME:1881
;Filament used: 0.664963m
;Layer height: 0.15
;Generated with Cura_SteamEngine 3.3.0
M104 S200
M109 S200
M82 ;absolute extrusion mode
G21 ;metric values
G90 ;absolute positioning
M82 ;set extruder to absolute mode
M107 ;start with the fan off
G28 X0 Y0 ;move X/Y to min endstops
G28 Z0 ;move Z to min endstops
G1 Z15.0 F9000 ;move the platform down 15mm
G92 E0 ;zero the extruded length
G1 F200 E6 ;extrude 6 mm of feed stock
G92 E0 ;zero the extruded length again
G1 F9000
;Put printing message on LCD screen
M117 Printing...
G92 E0
G1 F1500 E-6.5
;LAYER_COUNT:100
;LAYER:0
M107
G0 F3600 X75.327 Y74.809 Z0.3
;TYPE:SKIRT
G1 F1500 E0
G1 F1800 X75.811 Y74.353 E0.01251
G1 X78.487 Y72.037 E0.07908
G1 X79.012 Y71.62 E0.09169
G1 X80.445 Y70.581 E0.12499
G1 X81.003 Y70.213 E0.13756
G1 X84.036 Y68.388 E0.20414
G1 X84.622 Y68.068 E0.2167
G1 X86.212 Y67.288 E0.25002
G1 X86.615 Y67.104 E0.25835
G1 X88.246 Y66.416 E0.29165
G1 X88.665 Y66.254 E0.3001
G1 X90.333 Y65.661 E0.3334
G1 X90.753 Y65.525 E0.3417
G1 X92.453 Y65.027 E0.37503
G1 X92.878 Y64.915 E0.38329
G1 X94.601 Y64.514 E0.41657
G1 X95.27 Y64.389 E0.42937
G1 X98.775 Y63.89 E0.49597
G1 X99.438 Y63.824 E0.5085
G1 X101.206 Y63.725 E0.54181
G1 X101.651 Y63.713 E0.55018
G1 X103.421 Y63.715 E0.58348
G1 X103.862 Y63.728 E0.59178
G1 X105.629 Y63.83 E0.62507
G1 X106.294 Y63.897 E0.63764
G1 X109.798 Y64.403 E0.70424
G1 X110.456 Y64.527 E0.71683
G1 X112.178 Y64.929 E0.7501
G1 X112.822 Y65.109 E0.76268
G1 X116.188 Y66.206 E0.82927
G1 X116.815 Y66.441 E0.84186
G1 X118.445 Y67.132 E0.87517
G1 X118.849 Y67.316 E0.88352
G1 X120.438 Y68.099 E0.91684
G1 X120.832 Y68.308 E0.92523
G1 X122.371 Y69.179 E0.95849
G1 X122.75 Y69.408 E0.96682
G1 X124.24 Y70.367 E1.00015
G1 X124.608 Y70.618 E1.00853
G1 X126.039 Y71.659 E1.04182
G1 X126.395 Y71.935 E1.05029
G1 X127.765 Y73.058 E1.08362
G1 X128.099 Y73.348 E1.09194
G1 X129.403 Y74.547 E1.12526
G1 X129.72 Y74.856 E1.13358
G1 X130.952 Y76.125 E1.16685
G1 X131.399 Y76.626 E1.17948
G1 X133.637 Y79.368 E1.24606
G1 X134.035 Y79.901 E1.25857
G1 X135.034 Y81.364 E1.2919
G1 X135.278 Y81.743 E1.30038
G1 X136.189 Y83.258 E1.33363
G1 X136.405 Y83.643 E1.34193
G1 X137.231 Y85.211 E1.37527
G1 X137.428 Y85.612 E1.38368
G1 X138.162 Y87.223 E1.41698
G1 X138.334 Y87.631 E1.42531
G1 X138.975 Y89.28 E1.45859
G1 X139.125 Y89.702 E1.46701
G1 X139.671 Y91.387 E1.50033
G1 X139.85 Y92.031 E1.5129
G1 X140.649 Y95.48 E1.5795
G1 X140.772 Y96.138 E1.59209
G1 X141.022 Y97.89 E1.62538
G1 X141.072 Y98.331 E1.63373
G1 X141.222 Y100.096 E1.66705
G1 X141.247 Y100.541 E1.67543
G1 X141.296 Y102.31 E1.70872
G1 X141.296 Y102.755 E1.71709
G1 X141.244 Y104.524 E1.75038
G1 X141.218 Y104.969 E1.75877
G1 X141.065 Y106.733 E1.79207
G1 X141.014 Y107.174 E1.80042
G1 X140.761 Y108.926 E1.83372
G1 X140.683 Y109.373 E1.84226
G1 X140.328 Y111.11 E1.87561
G1 X140.229 Y111.532 E1.88376
G1 X139.779 Y113.243 E1.91704
G1 X139.652 Y113.677 E1.92555
G1 X139.103 Y115.361 E1.95886
G1 X138.953 Y115.78 E1.96723
G1 X138.309 Y117.429 E2.00053
G1 X138.136 Y117.837 E2.00887
G1 X137.4 Y119.446 E2.04215
G1 X137.202 Y119.847 E2.05057
G1 X136.374 Y121.413 E2.08389
G1 X136.158 Y121.796 E2.09216
G1 X135.244 Y123.311 E2.12544
G1 X134.998 Y123.693 E2.13399
G1 X133.997 Y125.153 E2.16729
G1 X133.598 Y125.685 E2.1798
G1 X131.355 Y128.423 E2.24637
G1 X130.909 Y128.922 E2.25896
G1 X129.673 Y130.191 E2.29229
G1 X129.189 Y130.647 E2.30479
G1 X126.513 Y132.963 E2.37137
G1 X125.988 Y133.38 E2.38398
G1 X124.555 Y134.419 E2.41727
G1 X123.997 Y134.787 E2.42985
G1 X120.964 Y136.612 E2.49643
G1 X120.378 Y136.932 E2.50899
G1 X118.788 Y137.712 E2.5423
G1 X118.385 Y137.896 E2.55064
G1 X116.754 Y138.584 E2.58393
G1 X116.335 Y138.746 E2.59238
G1 X114.667 Y139.339 E2.62568
G1 X114.247 Y139.475 E2.63399
G1 X112.547 Y139.973 E2.66731
G1 X112.122 Y140.085 E2.67558
G1 X110.399 Y140.486 E2.70886
G1 X109.73 Y140.611 E2.72166
G1 X106.225 Y141.11 E2.78825
G1 X105.562 Y141.176 E2.80079
G1 X103.794 Y141.275 E2.8341
G1 X103.349 Y141.287 E2.84247
G1 X101.579 Y141.285 E2.87576
G1 X101.138 Y141.272 E2.88406
G1 X99.371 Y141.17 E2.91736
G1 X98.706 Y141.103 E2.92993
G1 X95.202 Y140.597 E2.99652
G1 X94.544 Y140.473 E3.00912
G1 X92.822 Y140.071 E3.04238
G1 X92.178 Y139.891 E3.05496
G1 X88.812 Y138.794 E3.12155
G1 X88.185 Y138.559 E3.13415
G1 X86.555 Y137.868 E3.16745
G1 X86.151 Y137.684 E3.1758
G1 X84.562 Y136.901 E3.20913
G1 X84.168 Y136.692 E3.21751
G1 X82.629 Y135.821 E3.25078
G1 X82.25 Y135.592 E3.25911
G1 X80.76 Y134.633 E3.29244
G1 X80.392 Y134.381 E3.30083
G1 X78.96 Y133.339 E3.33414
G1 X78.605 Y133.065 E3.34258
G1 X77.236 Y131.943 E3.37587
G1 X76.901 Y131.652 E3.38422
G1 X75.597 Y130.453 E3.41754
G1 X75.28 Y130.144 E3.42587
G1 X74.047 Y128.874 E3.45917
G1 X73.6 Y128.373 E3.4718
G1 X71.362 Y125.631 E3.53837
G1 X70.963 Y125.097 E3.55091
G1 X69.965 Y123.635 E3.58421
G1 X69.723 Y123.258 E3.59264
G1 X68.811 Y121.742 E3.62592
G1 X68.593 Y121.355 E3.63427
G1 X67.768 Y119.788 E3.66758
G1 X67.572 Y119.388 E3.67596
G1 X66.838 Y117.777 E3.70926
G1 X66.665 Y117.368 E3.71762
G1 X66.024 Y115.718 E3.75091
G1 X65.875 Y115.297 E3.75931
G1 X65.329 Y113.612 E3.79263
G1 X65.203 Y113.183 E3.80104
G1 X64.755 Y111.471 E3.83433
G1 X64.656 Y111.041 E3.84263
G1 X64.305 Y109.304 E3.87597
G1 X64.228 Y108.861 E3.88442
G1 X63.978 Y107.109 E3.91771
G1 X63.928 Y106.668 E3.92606
G1 X63.778 Y104.903 E3.95938
G1 X63.753 Y104.458 E3.96777
G1 X63.704 Y102.69 E4.00104
G1 X63.704 Y102.245 E4.00941
G1 X63.756 Y100.476 E4.0427
G1 X63.782 Y100.031 E4.05108
G1 X63.935 Y98.267 E4.08439
G1 X63.986 Y97.826 E4.09274
G1 X64.239 Y96.074 E4.12604
G1 X64.317 Y95.627 E4.13457
G1 X64.672 Y93.89 E4.16792
G1 X64.771 Y93.468 E4.17608
G1 X65.221 Y91.757 E4.20935
G1 X65.348 Y91.323 E4.21786
G1 X65.897 Y89.639 E4.25118
G1 X66.047 Y89.22 E4.25955
G1 X66.691 Y87.571 E4.29285
G1 X66.864 Y87.163 E4.30119
G1 X67.6 Y85.554 E4.33447
G1 X67.798 Y85.153 E4.34288
G1 X68.626 Y83.587 E4.3762
G1 X68.842 Y83.204 E4.38447
G1 X69.756 Y81.689 E4.41776
G1 X70.002 Y81.307 E4.4263
G1 X71.003 Y79.847 E4.4596
G1 X71.402 Y79.315 E4.47211
G1 X73.645 Y76.577 E4.53869
G1 X74.091 Y76.078 E4.55128
G1 X75.327 Y74.809 E4.5846
G0 F3600 X75.614 Y75.088
G1 F1800 X76.072 Y74.656 E4.59644
G1 X78.748 Y72.34 E4.66302
G1 X79.247 Y71.944 E4.675
G1 X80.68 Y70.905 E4.70829
G1 X81.209 Y70.555 E4.72023
G1 X84.242 Y68.73 E4.78681
G1 X84.798 Y68.427 E4.79872
G1 X86.388 Y67.647 E4.83203
G1 X86.771 Y67.473 E4.83995
G1 X88.402 Y66.785 E4.87325
G1 X88.799 Y66.631 E4.88126
G1 X90.467 Y66.038 E4.91456
G1 X90.866 Y65.908 E4.92245
G1 X92.566 Y65.41 E4.95577
G1 X92.969 Y65.305 E4.9636
G1 X94.692 Y64.904 E4.99688
G1 X95.326 Y64.785 E5.00902
G1 X98.831 Y64.286 E5.07561
G1 X99.46 Y64.224 E5.0875
G1 X101.228 Y64.125 E5.12081
G1 X101.65 Y64.113 E5.12875
G1 X103.42 Y64.115 E5.16205
G1 X103.838 Y64.127 E5.16991
G1 X105.605 Y64.229 E5.20321
G1 X106.237 Y64.293 E5.21515
G1 X109.741 Y64.799 E5.28175
G1 X110.365 Y64.917 E5.2937
G1 X112.087 Y65.319 E5.32696
G1 X112.698 Y65.489 E5.33889
G1 X116.064 Y66.586 E5.40548
G1 X116.659 Y66.809 E5.41744
G1 X118.289 Y67.5 E5.45074
G1 X118.672 Y67.675 E5.45866
G1 X120.261 Y68.458 E5.49198
G1 X120.635 Y68.656 E5.49994
G1 X122.174 Y69.527 E5.5332
G1 X122.534 Y69.744 E5.54111
G1 X124.024 Y70.703 E5.57444
G1 X124.372 Y70.942 E5.58238
G1 X125.803 Y71.983 E5.61567
G1 X126.141 Y72.244 E5.6237
G1 X127.511 Y73.367 E5.65703
G1 X127.829 Y73.643 E5.66495
G1 X129.133 Y74.842 E5.69827
G1 X129.433 Y75.134 E5.70614
G1 X130.665 Y76.403 E5.73941
G1 X131.089 Y76.879 E5.7514
G1 X133.327 Y79.621 E5.81798
G1 X133.705 Y80.127 E5.82986
G1 X134.704 Y81.59 E5.86319
G1 X134.935 Y81.95 E5.87123
G1 X135.846 Y83.465 E5.90449
G1 X136.051 Y83.829 E5.91234
G1 X136.877 Y85.397 E5.94568
G1 X137.064 Y85.778 E5.95366
G1 X137.798 Y87.389 E5.98697
G1 X137.961 Y87.776 E5.99486
G1 X138.602 Y89.425 E6.02814
G1 X138.745 Y89.825 E6.03613
G1 X139.291 Y91.51 E6.06945
G1 X139.46 Y92.121 E6.08138
G1 X140.259 Y95.57 E6.14797
G1 X140.376 Y96.195 E6.15993
G1 X140.626 Y97.947 E6.19322
G1 X140.673 Y98.365 E6.20114
G1 X140.823 Y100.13 E6.23446
G1 X140.847 Y100.552 E6.24241
G1 X140.896 Y102.321 E6.2757
G1 X140.896 Y102.743 E6.28363
G1 X140.844 Y104.512 E6.31692
G1 X140.819 Y104.934 E6.32488
G1 X140.666 Y106.698 E6.35818
G1 X140.618 Y107.117 E6.36612
G1 X140.365 Y108.869 E6.39941
G1 X140.291 Y109.293 E6.40751
G1 X139.936 Y111.03 E6.44086
G1 X139.843 Y111.43 E6.44858
G1 X139.393 Y113.141 E6.48186
G1 X139.272 Y113.553 E6.48994
G1 X138.723 Y115.237 E6.52326
G1 X138.58 Y115.635 E6.53121
G1 X137.936 Y117.284 E6.56451
G1 X137.772 Y117.67 E6.5724
G1 X137.036 Y119.279 E6.60569
G1 X136.849 Y119.66 E6.61367
G1 X136.021 Y121.226 E6.64699
G1 X135.815 Y121.59 E6.65486
G1 X134.901 Y123.105 E6.68814
G1 X134.668 Y123.467 E6.69624
G1 X133.667 Y124.927 E6.72954
G1 X133.288 Y125.431 E6.7414
G1 X131.045 Y128.169 E6.80798
G1 X130.622 Y128.643 E6.81993
G1 X129.386 Y129.912 E6.85325
G1 X128.928 Y130.344 E6.86509
G1 X126.252 Y132.66 E6.93167
G1 X125.753 Y133.056 E6.94365
G1 X124.32 Y134.095 E6.97694
G1 X123.791 Y134.445 E6.98888
G1 X120.758 Y136.27 E7.05546
G1 X120.202 Y136.573 E7.06737
G1 X118.612 Y137.353 E7.10068
G1 X118.229 Y137.527 E7.1086
G1 X116.598 Y138.215 E7.1419
G1 X116.201 Y138.369 E7.14991
G1 X114.533 Y138.962 E7.1832
G1 X114.134 Y139.092 E7.1911
G1 X112.434 Y139.59 E7.22442
G1 X112.031 Y139.695 E7.23225
G1 X110.308 Y140.096 E7.26553
G1 X109.674 Y140.215 E7.27767
G1 X106.169 Y140.714 E7.34426
G1 X105.54 Y140.776 E7.35615
G1 X103.772 Y140.875 E7.38946
G1 X103.35 Y140.887 E7.3974
G1 X101.58 Y140.885 E7.4307
G1 X101.162 Y140.873 E7.43856
G1 X99.395 Y140.771 E7.47185
G1 X98.763 Y140.707 E7.4838
G1 X95.259 Y140.201 E7.5504
G1 X94.635 Y140.083 E7.56235
G1 X92.913 Y139.681 E7.59561
G1 X92.302 Y139.511 E7.60754
G1 X88.936 Y138.414 E7.67413
G1 X88.341 Y138.191 E7.68608
G1 X86.711 Y137.5 E7.71939
G1 X86.328 Y137.325 E7.72731
G1 X84.739 Y136.542 E7.76063
G1 X84.365 Y136.344 E7.76859
G1 X82.826 Y135.473 E7.80185
G1 X82.466 Y135.256 E7.80976
G1 X80.976 Y134.297 E7.84309
G1 X80.627 Y134.058 E7.85105
G1 X79.195 Y133.016 E7.88436
G1 X78.858 Y132.755 E7.89238
G1 X77.489 Y131.633 E7.92568
G1 X77.171 Y131.357 E7.9336
G1 X75.867 Y130.158 E7.96692
G1 X75.567 Y129.866 E7.97479
G1 X74.334 Y128.596 E8.00809
G1 X73.91 Y128.12 E8.02008
G1 X71.672 Y125.378 E8.08666
G1 X71.293 Y124.871 E8.09857
G1 X70.295 Y123.409 E8.13186
G1 X70.066 Y123.052 E8.13984
G1 X69.154 Y121.536 E8.17312
G1 X68.947 Y121.168 E8.18106
G1 X68.122 Y119.601 E8.21437
G1 X67.936 Y119.222 E8.22232
G1 X67.202 Y117.611 E8.25562
G1 X67.038 Y117.223 E8.26354
G1 X66.397 Y115.573 E8.29684
G1 X66.255 Y115.174 E8.3048
G1 X65.709 Y113.489 E8.33812
G1 X65.59 Y113.081 E8.34612
G1 X65.142 Y111.369 E8.37941
G1 X65.048 Y110.962 E8.38726
G1 X64.697 Y109.225 E8.4206
G1 X64.624 Y108.804 E8.42863
G1 X64.374 Y107.052 E8.46192
G1 X64.327 Y106.634 E8.46984
G1 X64.177 Y104.869 E8.50316
G1 X64.153 Y104.447 E8.51111
G1 X64.104 Y102.679 E8.54438
G1 X64.104 Y102.257 E8.55232
G1 X64.156 Y100.488 E8.58561
G1 X64.181 Y100.066 E8.59356
G1 X64.334 Y98.302 E8.62686
G1 X64.382 Y97.883 E8.6348
G1 X64.635 Y96.131 E8.6681
G1 X64.709 Y95.707 E8.67619
G1 X65.064 Y93.97 E8.70954
G1 X65.157 Y93.57 E8.71727
G1 X65.607 Y91.859 E8.75055
G1 X65.728 Y91.447 E8.75862
G1 X66.277 Y89.763 E8.79194
G1 X66.42 Y89.365 E8.7999
G1 X67.064 Y87.716 E8.8332
G1 X67.228 Y87.33 E8.84108
G1 X67.964 Y85.721 E8.87437
G1 X68.151 Y85.34 E8.88235
G1 X68.979 Y83.774 E8.91567
G1 X69.185 Y83.41 E8.92354
G1 X70.099 Y81.895 E8.95682
G1 X70.332 Y81.533 E8.96492
G1 X71.333 Y80.073 E8.99822
G1 X71.712 Y79.569 E9.01008
G1 X73.955 Y76.831 E9.07666
G1 X74.378 Y76.357 E9.08861
G1 X75.614 Y75.088 E9.12193
G0 F3600 X75.9 Y75.367
G1 F1800 X76.334 Y74.958 E9.13315
G1 X79.01 Y72.642 E9.19972
G1 X79.482 Y72.268 E9.21105
G1 X80.915 Y71.229 E9.24434
G1 X81.415 Y70.898 E9.25562
G1 X84.448 Y69.073 E9.32221
G1 X84.974 Y68.786 E9.33348
G1 X86.564 Y68.006 E9.36679
G1 X86.926 Y67.841 E9.37428
G1 X88.557 Y67.153 E9.40757
G1 X88.933 Y67.007 E9.41516
G1 X90.601 Y66.414 E9.44846
G1 X90.978 Y66.292 E9.45592
G1 X92.678 Y65.794 E9.48924
G1 X93.059 Y65.694 E9.49665
G1 X94.782 Y65.293 E9.52992
G1 X95.382 Y65.181 E9.5414
G1 X98.887 Y64.682 E9.608
G1 X99.483 Y64.623 E9.61927
G1 X101.251 Y64.524 E9.65258
G1 X101.65 Y64.513 E9.66008
G1 X103.42 Y64.515 E9.69338
G1 X103.815 Y64.527 E9.70081
G1 X105.582 Y64.629 E9.73411
G1 X106.179 Y64.689 E9.74539
G1 X109.683 Y65.195 E9.81199
G1 X110.274 Y65.306 E9.8233
G1 X111.996 Y65.708 E9.85656
G1 X112.574 Y65.87 E9.86785
G1 X115.94 Y66.967 E9.93445
G1 X116.503 Y67.177 E9.94575
G1 X118.133 Y67.868 E9.97905
G1 X118.495 Y68.034 E9.98654
G1 X120.084 Y68.817 E10.01987
G1 X120.438 Y69.004 E10.0274
G1 X121.977 Y69.875 E10.06066
G1 X122.317 Y70.081 E10.06814
G1 X123.807 Y71.04 E10.10147
G1 X124.137 Y71.265 E10.10898
G1 X125.568 Y72.306 E10.14227
G1 X125.888 Y72.553 E10.14987
G1 X127.258 Y73.676 E10.1832
G1 X127.558 Y73.937 E10.19068
G1 X128.862 Y75.136 E10.224
G1 X129.146 Y75.413 E10.23146
G1 X130.378 Y76.682 E10.26473
G1 X130.779 Y77.132 E10.27607
G1 X133.017 Y79.874 E10.34265
G1 X133.375 Y80.353 E10.35389
G1 X134.374 Y81.816 E10.38722
G1 X134.592 Y82.156 E10.39482
G1 X135.503 Y83.671 E10.42807
G1 X135.697 Y84.015 E10.4355
G1 X136.523 Y85.583 E10.46884
G1 X136.7 Y85.944 E10.4764
G1 X137.434 Y87.555 E10.5097
G1 X137.588 Y87.921 E10.51717
G1 X138.229 Y89.57 E10.55045
G1 X138.364 Y89.948 E10.558
G1 X138.91 Y91.633 E10.59132
G1 X139.07 Y92.211 E10.6026
G1 X139.869 Y95.66 E10.66919
G1 X139.98 Y96.251 E10.68051
G1 X140.23 Y98.003 E10.7138
G1 X140.275 Y98.399 E10.72129
G1 X140.425 Y100.164 E10.75461
G1 X140.447 Y100.563 E10.76213
G1 X140.496 Y102.332 E10.79542
G1 X140.496 Y102.732 E10.80294
G1 X140.444 Y104.501 E10.83623
G1 X140.421 Y104.9 E10.84375
G1 X140.268 Y106.664 E10.87706
G1 X140.222 Y107.059 E10.88454
G1 X139.969 Y108.811 E10.91784
G1 X139.899 Y109.213 E10.92551
G1 X139.544 Y110.95 E10.95886
G1 X139.456 Y111.328 E10.96616
G1 X139.006 Y113.039 E10.99944
G1 X138.891 Y113.429 E11.00709
G1 X138.342 Y115.113 E11.04041
G1 X138.207 Y115.489 E11.04792
G1 X137.563 Y117.138 E11.08122
G1 X137.409 Y117.504 E11.08869
G1 X136.673 Y119.113 E11.12197
G1 X136.495 Y119.473 E11.12953
G1 X135.667 Y121.039 E11.16285
G1 X135.473 Y121.383 E11.17028
G1 X134.559 Y122.898 E11.20356
G1 X134.338 Y123.24 E11.21122
G1 X133.337 Y124.7 E11.24452
G1 X132.979 Y125.178 E11.25575
G1 X130.736 Y127.916 E11.32233
G1 X130.336 Y128.364 E11.33363
G1 X129.1 Y129.633 E11.36695
G1 X128.666 Y130.042 E11.37817
G1 X125.99 Y132.358 E11.44474
G1 X125.518 Y132.732 E11.45607
G1 X124.085 Y133.771 E11.48936
G1 X123.585 Y134.102 E11.50064
G1 X120.552 Y135.927 E11.56723
G1 X120.026 Y136.214 E11.5785
G1 X118.436 Y136.994 E11.61181
G1 X118.074 Y137.159 E11.61929
G1 X116.443 Y137.847 E11.65259
G1 X116.067 Y137.993 E11.66018
G1 X114.399 Y138.586 E11.69348
G1 X114.022 Y138.708 E11.70093
G1 X112.322 Y139.206 E11.73426
G1 X111.941 Y139.306 E11.74166
G1 X110.218 Y139.707 E11.77494
G1 X109.618 Y139.819 E11.78642
G1 X106.113 Y140.318 E11.85302
G1 X105.517 Y140.377 E11.86428
G1 X103.749 Y140.476 E11.89759
G1 X103.35 Y140.487 E11.9051
G1 X101.58 Y140.485 E11.9384
G1 X101.185 Y140.473 E11.94583
G1 X99.418 Y140.371 E11.97912
G1 X98.821 Y140.311 E11.99041
G1 X95.317 Y139.805 E12.05701
G1 X94.726 Y139.694 E12.06832
G1 X93.004 Y139.292 E12.10158
G1 X92.426 Y139.13 E12.11287
G1 X89.06 Y138.033 E12.17947
G1 X88.497 Y137.823 E12.19077
G1 X86.867 Y137.132 E12.22407
G1 X86.505 Y136.966 E12.23156
G1 X84.916 Y136.183 E12.26488
G1 X84.562 Y135.996 E12.27242
G1 X83.023 Y135.125 E12.30568
G1 X82.683 Y134.919 E12.31316
G1 X81.193 Y133.96 E12.34649
G1 X80.862 Y133.734 E12.35403
G1 X79.43 Y132.692 E12.38734
G1 X79.112 Y132.446 E12.3949
G1 X77.743 Y131.324 E12.4282
G1 X77.442 Y131.063 E12.43569
G1 X76.138 Y129.864 E12.46902
G1 X75.854 Y129.587 E12.47648
G1 X74.621 Y128.317 E12.50977
G1 X74.22 Y127.867 E12.52111
G1 X71.982 Y125.125 E12.58769
G1 X71.624 Y124.646 E12.59894
G1 X70.626 Y123.184 E12.63224
G1 X70.409 Y122.845 E12.63981
G1 X69.497 Y121.329 E12.67309
